X:29
T:Nonesuch
O:Playford
P:(AABB)6+(CCDD)3+DD
H:Nonesuch was built in 1538 by Henry VIII over the demolished property
H:of the village of Cuddington, near Epsom Wells in Sussex, to be the
H:most ostentatious hunting lodge ever made. At the very end of her
H:life, Elizabeth I visited Nonesuch, as a guest of Lord Lumley,
H:son-in-law of the Earl of Arundel, and it was reported that "there is
H:much dancing of country dances in the privy chamber at Nonesuch, before
H:the Queen's majesty, who is exceedingly pleased therewith".
P:Nonesuch
M:C|
L:1/4
Q:120
K:DDor
a|afga|f e/2f/2 da|afga|f2fa|afga|f e/2f/2 da|
afga|f2de|ecde|f e/2f/2 de|ecde|f e/2f/2 de|ecde|f2d||

